src/assets/icons/media-reading-writing,simple,pallette.svg

<svg width="48" height="48" viewBox="0 0 48 48" fill="none" xmlns="http://www.w3.org/2000/svg">
<rect opacity="0.2" x="5" y="5" width="38" height="38" rx="4" fill="black"/>
<path d="M10.2984 21.3094C9.60267 24.6885 10.1276 27.9832 11.831 30.9347C13.3763 33.6148 15.7194 35.6759 18.5827 36.8692C19.2994 37.17 19.6448 37.2842 20.5428 37.5158C21.8086 37.8466 22.7435 37.9774 23.9781 37.9983C25.0492 38.0123 25.8369 37.9433 26.9464 37.7283C28.1625 37.4934 29.0882 37.2006 30.2338 36.6874C30.7327 36.4653 31.9612 35.7617 32.4428 35.4245C34.6475 33.8766 36.3074 31.8368 37.3317 29.4129C37.6878 28.5739 38.003 27.5271 38 27.2037C37.9936 26.6583 37.8426 26.1827 37.5466 25.7887C37.1861 25.3062 36.6927 24.995 36.0962 24.881C35.5241 24.7673 35.1155 24.8279 34.4855 25.1143C34.2056 25.2413 33.7634 25.3349 33.4463 25.3297C33.1529 25.3277 32.6128 25.1866 32.3605 25.046C31.7144 24.6889 31.2841 24.0926 31.1613 23.3913C31.0811 22.9253 31.0779 22.9483 31.6263 20.8631C31.899 19.8261 32.1231 18.9436 32.1252 18.9023C32.1245 18.8603 32.1417 18.6975 32.1581 18.5375C32.3285 16.9809 31.9592 15.3489 31.1174 13.943C30.4312 12.7958 29.5643 11.927 28.3946 11.224C27.4486 10.6542 26.1819 10.2485 24.8336 10.0844C20.8765 9.60601 16.8394 11.1799 13.9251 14.3407C12.6336 15.7419 11.6717 17.2919 10.9538 19.1357C10.7984 19.5342 10.3758 20.9383 10.2984 21.3094ZM12.7811 24.4675C13.2351 23.7736 13.9899 23.3674 14.823 23.367C15.1559 23.3704 15.6645 23.5033 15.9567 23.6662C16.7029 24.0823 17.1652 24.8633 17.1614 25.7017C17.1598 26.0419 17.0327 26.5045 16.8597 26.7999C16.439 27.5174 15.7147 27.9465 14.8623 27.9837C14.5836 27.9945 14.0702 27.8902 13.7954 27.7647C12.9424 27.3804 12.3972 26.5001 12.4311 25.574C12.4403 25.2955 12.6301 24.6939 12.7811 24.4675ZM14.7317 17.2012C15.1615 16.3726 16.0945 15.8636 17.0425 15.947C17.3448 15.9722 17.843 16.1322 18.0787 16.2775C18.7978 16.7253 19.2051 17.4501 19.2016 18.2766C19.2 18.6168 19.0728 19.0794 18.8998 19.3748C18.4732 20.1027 17.6724 20.5537 16.8128 20.5501C16.4698 20.5501 15.9641 20.418 15.6727 20.2522C14.8846 19.8103 14.4142 18.9585 14.4775 18.0818C14.4918 17.8734 14.6285 17.3983 14.7317 17.2012ZM17.5074 30.7959C17.723 30.3234 18.0329 29.9981 18.514 29.7295C18.9987 29.4589 19.4444 29.3752 20.0121 29.4489C20.7367 29.5426 21.3827 29.9892 21.746 30.6398C21.9396 30.9831 22.0236 31.3128 22.0314 31.7301C22.0362 32.036 21.8872 32.6005 21.7342 32.8563C21.1741 33.7913 20.1089 34.224 19.0602 33.9499C18.5887 33.8267 18.2037 33.6007 17.9031 33.2682C17.2856 32.584 17.1294 31.6142 17.5074 30.7959ZM22.1244 14.204C22.671 13.3072 23.736 12.8864 24.7704 13.1567C25.2418 13.2799 25.5891 13.4872 25.9111 13.8312C26.8255 14.817 26.7016 16.338 25.6336 17.1821C25.2887 17.4565 24.7369 17.6588 24.2744 17.6814C23.4327 17.7243 22.6104 17.3063 22.1654 16.6075C21.8881 16.1676 21.7643 15.6931 21.8007 15.2038C21.82 14.922 21.9753 14.4458 22.1244 14.204Z" fill="black"/>
</svg>

<svg xmlns="http://www.w3.org/2000/svg" width="48" height="48" fill="none" viewBox="0 0 48 48">
  <rect width="38" height="38" x="5" y="5" fill="#000" opacity=".2" rx="4"/>
  <path fill="#000" d="M10.298 21.31c-.695 3.379-.17 6.673 1.533 9.625a13.929 13.929 0 006.752 5.934c.716.301 1.062.415 1.96.647 1.266.33 2.2.461 3.435.482a13.225 13.225 0 002.968-.27 13.883 13.883 0 003.288-1.04c.499-.223 1.727-.926 2.209-1.264 2.205-1.547 3.864-3.587 4.889-6.011.356-.84.671-1.886.668-2.21-.006-.545-.157-1.02-.453-1.414a2.312 2.312 0 00-1.45-.908c-.573-.114-.982-.053-1.611.233-.28.127-.723.22-1.04.216-.293-.002-.833-.143-1.085-.284a2.342 2.342 0 01-1.2-1.655c-.08-.466-.083-.443.465-2.528.273-1.037.497-1.92.5-1.96-.002-.043.016-.205.032-.365.17-1.557-.199-3.19-1.04-4.595a7.647 7.647 0 00-2.723-2.719c-.946-.57-2.213-.976-3.561-1.14-3.957-.478-7.995 1.096-10.909 4.257-1.291 1.4-2.253 2.95-2.971 4.795-.156.398-.578 1.802-.656 2.173zm2.483 3.158a2.417 2.417 0 012.042-1.101c.333.003.841.136 1.134.3a2.328 2.328 0 011.204 2.035c-.001.34-.128.802-.301 1.098-.421.717-1.145 1.146-1.998 1.184-.278.01-.792-.094-1.067-.22a2.331 2.331 0 01-1.364-2.19c.01-.279.2-.88.35-1.107zm1.95-7.267c.43-.828 1.364-1.337 2.312-1.254.302.025.8.185 1.036.33.719.448 1.126 1.173 1.123 2-.002.34-.13.802-.302 1.098a2.41 2.41 0 01-2.087 1.175 2.7 2.7 0 01-1.14-.298c-.788-.442-1.259-1.293-1.196-2.17.015-.209.152-.684.255-.88zm2.776 13.595c.216-.473.526-.798 1.007-1.066.485-.271.93-.355 1.498-.281.725.094 1.37.54 1.734 1.19.194.344.278.674.285 1.091.005.306-.144.87-.297 1.126a2.378 2.378 0 01-2.674 1.094 2.3 2.3 0 01-1.157-.682 2.27 2.27 0 01-.396-2.472zm4.617-16.592c.547-.897 1.612-1.318 2.646-1.047.472.123.82.33 1.141.674.915.986.79 2.507-.277 3.351-.345.274-.897.477-1.36.5a2.378 2.378 0 01-2.109-1.074 2.277 2.277 0 01-.364-1.404c.019-.282.174-.758.323-1z"/>
</svg>
